svgs/calculator_plusplus.svg

<?xml version="1.0" encoding="UTF-8" standalone="no"?>
<svg
   width="192"
   height="192"
   version="1.1"
   id="svg10"
   xml:space="preserve"
   xmlns="http://www.w3.org/2000/svg"
   xmlns:svg="http://www.w3.org/2000/svg"><defs
     id="defs14" /><g
     id="g1554"
     transform="matrix(1.2493706,0,0,1.25404,-20.153809,-25.5145)"
     style="stroke-width:0.798911"><path
       style="fill:#000000;fill-opacity:1;stroke:#000000;stroke-width:6.39129;stroke-linecap:round;stroke-dasharray:none"
       d="m 105.51971,96.114695 h 18.58065"
       id="path1286" /><path
       style="fill:#000000;fill-opacity:1;stroke:#000000;stroke-width:6.39129;stroke-linecap:round;stroke-dasharray:none"
       d="M 114.92473,85.218643 V 105.86379"
       id="path1286-6" /><path
       style="fill:#000000;fill-opacity:1;stroke:#000000;stroke-width:6.39129;stroke-linecap:round;stroke-dasharray:none"
       d="m 135.2258,96.000002 h 18.58065"
       id="path1286-8" /><path
       style="fill:#000000;fill-opacity:1;stroke:#000000;stroke-width:6.39129;stroke-linecap:round;stroke-dasharray:none"
       d="M 144.63082,85.10395 V 105.7491"
       id="path1286-6-4" /><path
       style="fill:none;fill-opacity:1;stroke:#000000;stroke-width:6.39129;stroke-linecap:round;stroke-dasharray:none;stroke-linejoin:round"
       id="path1364"
       d="M 109.9702,131.07448 A 46.50005,46.50005 0 0 1 44.942426,128.80574 46.50005,46.50005 0 0 1 45.846055,63.744672 46.50005,46.50005 0 0 1 110.91176,63.282788" /><path
       style="fill:none;fill-opacity:1;stroke:#000000;stroke-width:6.3913;stroke-linecap:round;stroke-dasharray:none"
       id="path1364-5"
       d="M 98.293261,119.89873 A 29.718033,30.269028 0 0 1 56.734217,118.4219 29.718033,30.269028 0 0 1 57.311724,76.070653 29.718033,30.269028 0 0 1 98.895005,75.769992" /><path
       style="fill:none;fill-opacity:1;stroke:#000000;stroke-width:6.39129;stroke-linecap:round;stroke-dasharray:none;stroke-linejoin:round"
       d="M 110.10752,64.229391 98.867383,75.698924"
       id="path1415" /><path
       style="fill:none;fill-opacity:1;stroke:#000000;stroke-width:6.39129;stroke-linecap:round;stroke-dasharray:none"
       d="M 99.096775,119.05377 109.41936,130.5233"
       id="path1417" /></g></svg>

<svg width="192" height="192" xml:space="preserve" xmlns="http://www.w3.org/2000/svg"><g style="stroke-width:.798911"><path style="fill:#000;fill-opacity:1;stroke:#000;stroke-width:6.39129;stroke-linecap:round;stroke-dasharray:none" d="M105.52 96.115h18.58M114.925 85.219v20.645M135.226 96h18.58M144.63 85.104v20.645" transform="matrix(1.24937 0 0 1.25404 -20.154 -25.515)"/><path style="fill:none;fill-opacity:1;stroke:#000;stroke-width:6.39129;stroke-linecap:round;stroke-dasharray:none;stroke-linejoin:round" d="M109.97 131.074a46.5 46.5 0 0 1-65.028-2.268 46.5 46.5 0 0 1 .904-65.061 46.5 46.5 0 0 1 65.066-.462" transform="matrix(1.24937 0 0 1.25404 -20.154 -25.515)"/><path style="fill:none;fill-opacity:1;stroke:#000;stroke-width:6.3913;stroke-linecap:round;stroke-dasharray:none" d="M98.293 119.899a29.718 30.269 0 0 1-41.559-1.477 29.718 30.269 0 0 1 .578-42.351 29.718 30.269 0 0 1 41.583-.301" transform="matrix(1.24937 0 0 1.25404 -20.154 -25.515)"/><path style="fill:none;fill-opacity:1;stroke:#000;stroke-width:6.39129;stroke-linecap:round;stroke-dasharray:none;stroke-linejoin:round" d="m110.108 64.23-11.24 11.469" transform="matrix(1.24937 0 0 1.25404 -20.154 -25.515)"/><path style="fill:none;fill-opacity:1;stroke:#000;stroke-width:6.39129;stroke-linecap:round;stroke-dasharray:none" d="m99.097 119.054 10.322 11.47" transform="matrix(1.24937 0 0 1.25404 -20.154 -25.515)"/></g></svg>
